svgs/sharp-regular/cart-flatbed.svg

<svg xmlns="http://www.w3.org/2000/svg" viewBox="0 0 640 512"><!--! Font Awesome Pro 6.6.0 by @fontawesome - https://fontawesome.com License - https://fontawesome.com/license (Commercial License) Copyright 2024 Fonticons, Inc. --><path d="M24 0L0 0 0 48l24 0 56 0 0 392 0 24 24 0 56 0c0 26.5 21.5 48 48 48s48-21.5 48-48l192 0c0 26.5 21.5 48 48 48s48-21.5 48-48l72 0 24 0 0-48-24 0-120 0-288 0-80 0 0-392 0-24L104 0 24 0zM560 80l0 224-320 0 0-224 96 0 0 112 64-48 64 48 0-112 96 0zm0-48l-96 0L336 32l-96 0-48 0 0 48 0 224 0 48 48 0 320 0 48 0 0-48 0-224 0-48-48 0z"/></svg>

<svg xmlns="http://www.w3.org/2000/svg" viewBox="0 0 640 512"><!--! Font Awesome Pro 6.4.2 by @fontawesome - https://fontawesome.com License - https://fontawesome.com/license (Commercial License) Copyright 2023 Fonticons, Inc. --><path d="M24 0H0V48H24 80V440v24h24 56c0 26.5 21.5 48 48 48s48-21.5 48-48H448c0 26.5 21.5 48 48 48s48-21.5 48-48h72 24V416H616 496 208 128V24 0H104 24zM560 80V304H240V80h96V192l64-48 64 48V80h96zm0-48H464 336 240 192V80 304v48h48H560h48V304 80 32H560z"/></svg>
